icon-themes/breeze_svg/sw/res/wr09.svg

<svg viewBox="0 0 31 31" xmlns="http://www.w3.org/2000/svg"><path d="m11.5 8-7.5 7.5 7.5 7.5 7.5-7.5z" fill="#1d99f3"/><path d="m4 4v1h23v-1zm14 4v1h9v-1zm3 4v1h6v-1zm0 6v1h6v-1zm-3 4v1h9v-1zm-14 4v1h23v-1z" fill="#4d4d4d"/></svg>

<svg xmlns="http://www.w3.org/2000/svg" viewBox="0 0 31 31">
 <path 
     style="fill:#1d99f3" 
     d="M 11.5 8 L 4 15.5 L 11.5 23 L 19 15.5 L 11.5 8 z M 11.5 9.4140625 L 17.585938 15.5 L 11.5 21.585938 L 5.4140625 15.5 L 11.5 9.4140625 z "
     />
 <path 
     style="fill:#4d4d4d" 
     d="M 4 4 L 4 5 L 27 5 L 27 4 L 4 4 z M 18 8 L 18 9 L 27 9 L 27 8 L 18 8 z M 21 12 L 21 13 L 27 13 L 27 12 L 21 12 z M 21 18 L 21 19 L 27 19 L 27 18 L 21 18 z M 18 22 L 18 23 L 27 23 L 27 22 L 18 22 z M 4 26 L 4 27 L 27 27 L 27 26 L 4 26 z "
     />
</svg>
